icons/filled/garden-cart.svg

<svg xmlns="http://www.w3.org/2000/svg" width="24" height="24" viewBox="0 0 24 24" fill="currentColor"><path d="M3.324 3a2 2 0 0 1 1.855 1.258l1.097 2.742h14.724a1 1 0 0 1 .94 1.341l-.046 .106l-2.934 5.871a3.5 3.5 0 1 1 -4.96 3.182l.005 -.192a3.5 3.5 0 0 1 .499 -1.618l-2.446 -.258l-3.446 4.75a2 2 0 0 1 -2.08 .762l-.154 -.044a2 2 0 0 1 -1.378 -1.9v-9.804l-1.679 -4.196h-1.321a1 1 0 0 1 -.993 -.883l-.007 -.117a1 1 0 0 1 1 -1zm14.176 13a1.5 1.5 0 1 0 0 3a1.5 1.5 0 0 0 0 -3m-10.5 -2.498l-.002 5.498l2.783 -3.833a5 5 0 0 1 -2.614 -1.474z"/></svg>

<svg xmlns="http://www.w3.org/2000/svg" width="24" height="24" fill="currentColor"><path d="M3.324 3a2 2 0 0 1 1.855 1.258L6.276 7H21a1 1 0 0 1 .94 1.341l-.046.106-2.934 5.871A3.5 3.5 0 1 1 14 17.5l.005-.192a3.5 3.5 0 0 1 .499-1.618l-2.446-.258-3.446 4.75a2 2 0 0 1-2.08.762l-.154-.044A2 2 0 0 1 5 19V9.196L3.321 5H2a1 1 0 0 1-.993-.883L1 4a1 1 0 0 1 1-1zM17.5 16a1.5 1.5 0 1 0 0 3 1.5 1.5 0 0 0 0-3M7 13.502 6.998 19l2.783-3.833a5 5 0 0 1-2.614-1.474z"/></svg>
